X:48
T:Concerto Grosso Op.6 No.4 - Adagio
C:Corelli, A.
M:4/4
L:1/8
Q:1/4=52
K:D
|:A2|d4 ef g2|f2 ed c2 B2|A4 GF E2|D4 D2 EF|
G4 AB c2|B2 AG F2 E2|D4 EF G2|F4 F2:|

